X:135
T:Lord Gordon
M:4/4
L:1/8
R:reel
K:D
dB|ADFD A,DFB|ADFD FAdc|BEE2 dEE2|BEE2 BAFA|
dcdf ecdB|AFDF A2Bc|cBBA BFAF|EFGA Bc:|
de|f2df afdf|afdf a2gf|efga bgec|dcBA FABc|
dff2 ecdB|AFDF A2Bc|cBBA BFAF|EFGA Bc:|
de|faa2 fdad|faa2 fdad|gbb2 gebe|gbb2 gebe|
fgfe dcdB|BAGB ABdf|afec dBAF|EFGA Bc:|
dB|Addc defd|Addc defd|eggf g4|eggf gage|
fgfe dcdB|BAGB ABdf|afec dBAF|EFGA Bc:|
de|faa^g afde|faa^g a2=gf|gbef gbef|gbeg bgef|
g2bg fgaf|fedB ABdf|afec dBAF|EFGA Bc:|
